images/hero-bottom-bgi.svg

<svg width="358" height="100" fill="none" xmlns="http://www.w3.org/2000/svg"><circle cx="100" cy="100" r="100" fill="#2C6269"/><path fill-rule="evenodd" clip-rule="evenodd" d="M258 200c55.228 0 100-44.772 100-100S313.228 0 258 0 158 44.772 158 100s44.772 100 100 100Zm0-67c18.225 0 33-14.775 33-33s-14.775-33-33-33-33 14.775-33 33 14.775 33 33 33Z" fill="#012F34"/><path fill="#79C8C7" d="M358 43h-43V0h43z"/><path fill-rule="evenodd" clip-rule="evenodd" d="M233.513 200c55.229 0 100-44.772 100-100s-44.771-100-100-100c-55.228 0-100 44.772-100 100s44.772 100 100 100Zm0-67c18.226 0 33-14.775 33-33s-14.774-33-33-33c-18.225 0-33 14.775-33 33s14.775 33 33 33Z" fill="#F67E7E"/><path fill-rule="evenodd" clip-rule="evenodd" d="M100 0H0v4h100V0Zm0 8H0v4h100V8ZM0 16h100v4H0v-4Zm100 8H0v4h100v-4ZM0 32h100v4H0v-4Zm100 8H0v4h100v-4Z" fill="#79C8C7"/></svg>

<svg width="358" height="100" viewBox="0 0 358 100" fill="none" xmlns="http://www.w3.org/2000/svg">
<g id="Group 7">
<g id="Group 4">
<circle id="Oval" cx="100" cy="100" r="100" fill="#2C6269"/>
<path id="Combined Shape" fill-rule="evenodd" clip-rule="evenodd" d="M258 200C313.228 200 358 155.228 358 100C358 44.7715 313.228 0 258 0C202.772 0 158 44.7715 158 100C158 155.228 202.772 200 258 200ZM258 133C276.225 133 291 118.225 291 100C291 81.7746 276.225 67 258 67C239.775 67 225 81.7746 225 100C225 118.225 239.775 133 258 133Z" fill="#012F34"/>
<rect id="Rectangle" x="358" y="43" width="43" height="43" transform="rotate(-180 358 43)" fill="#79C8C7"/>
<path id="Combined Shape Copy" fill-rule="evenodd" clip-rule="evenodd" d="M233.513 200C288.742 200 333.513 155.228 333.513 100C333.513 44.7715 288.742 0 233.513 0C178.285 0 133.513 44.7715 133.513 100C133.513 155.228 178.285 200 233.513 200ZM233.513 133C251.739 133 266.513 118.225 266.513 100C266.513 81.7746 251.739 67 233.513 67C215.288 67 200.513 81.7746 200.513 100C200.513 118.225 215.288 133 233.513 133Z" fill="#F67E7E"/>
</g>
<path id="Combined Shape_2" fill-rule="evenodd" clip-rule="evenodd" d="M100 0H0V4H100V0ZM100 8H0V12H100V8ZM0 16H100V20H0V16ZM100 24H0V28H100V24ZM0 32H100V36H0V32ZM100 40H0V44H100V40Z" fill="#79C8C7"/>
</g>
</svg>
